src/shared/assets/icons/notifications.svg

<svg width='24' height='24' viewBox="0 0 24 24" fill="none" xmlns="http://www.w3.org/2000/svg">
  <path fillRule="evenodd" clipRule="evenodd" d="M12 2C15.9511 2 19.169 5.13941 19.2961 9.06012L19.3 9.30112V13.8019C19.3 14.6917 19.9831 15.4218 20.8533 15.4962L21.1332 15.5094C22.2445 15.6286 22.2872 17.2401 21.2614 17.4741L21.1332 17.4954L21 17.5024H3L2.86683 17.4954C1.71106 17.3714 1.71106 15.6334 2.86683 15.5094L3.14668 15.4962C3.96851 15.4259 4.62352 14.7708 4.69376 13.9486L4.7 13.8019V9.30112C4.7 5.26886 7.96828 2 12 2ZM13.557 19.103C14.3277 19.103 14.8087 19.9381 14.422 20.6047C13.9211 21.4684 12.9983 22 12 22C11.0017 22 10.0789 21.4684 9.57796 20.6047C9.21064 19.9714 9.62639 19.1861 10.3296 19.1092L10.443 19.103H13.557ZM6.70442 9.0826C6.81899 6.25617 9.14611 4 12 4C14.9271 4 17.3 6.37335 17.3 9.30112V13.8019L17.3051 13.9984L17.3276 14.2563C17.3797 14.6817 17.504 15.0848 17.6878 15.453L17.714 15.502H6.285L6.3122 15.453L6.41182 15.2362C6.59742 14.7951 6.7 14.3105 6.7 13.8019V9.30112L6.70442 9.0826Z" fill="current" />
</svg>

<svg xmlns="http://www.w3.org/2000/svg" width="24" height="24" fill="none"><path fill="current" d="M12 2a7.3 7.3 0 0 1 7.296 7.06l.004.241v4.5a1.7 1.7 0 0 0 1.553 1.695l.28.013c1.111.12 1.154 1.731.128 1.965l-.128.021-.133.007H3l-.133-.007c-1.156-.124-1.156-1.862 0-1.986l.28-.013a1.7 1.7 0 0 0 1.547-1.547l.006-.147v-4.5A7.3 7.3 0 0 1 12 2Zm1.557 17.103a1 1 0 0 1 .865 1.502 2.8 2.8 0 0 1-4.844 0 1 1 0 0 1 .752-1.496l.113-.006h3.114ZM6.704 9.083A5.3 5.3 0 0 1 17.3 9.3v4.5l.005.197.023.258c.052.426.176.829.36 1.197l.026.049H6.285l.027-.049.1-.217a3.69 3.69 0 0 0 .288-1.434v-4.5l.004-.22Z"/></svg>
